X: 11992
T: Eochaid
R: reel
M: 4/4
K: Eminor
|:"Em"e3g e2dB|A2"Bm"GA BG"A"(A2|A)BAG E2DG|EDB,A, B,2 "Bm"B,D|
"C"E2DE G2A2|"D"(3ABd e2 g2(3efg|"Asus4"a3b aged|1 "A"e4- eABd:|2 "A"e3d efgb||
|:"F"a3b a2ge|a2ge "G"g2ed|"Em"B2g2 edB2|DEGA "G"B/c/deg|
"F"a3b a2ge|a2ge "G"g2ed|"Em"B2b2 bag2|1 "Em"e3d efgb:|2 "Em"(e4 e)ABd||

